X:1
T:Title
%%score { ( 1 2 ) | ( 3 4 ) }
L:1/8
Q:1/4=100
M:4/4
K:Ab
V:1 treble nm="Grand Piano"
V:2 treble 
V:3 bass 
V:4 bass 
V:1
 [Ec]2 [Ec]2 AE [CA]2 | B2 c2 dc B2 | c2 d2 e3 c | e2 [Ec]2 [EB]4 | [Ec]2 [Ec]2 AE [CA]2 | %5
w: W.~H.~Doane * * * *|||||
 B2 c2 dc B2 | c2 d2 eAdc | z2 B2 z4 | [GB]3 [_G=A] [=GB] .[Bd]3 | c3 _c =c .e3 | %10
w: |||||
 [FAd]3 [FAd] ccBA | B2 c2 e2 d2 | z4 .A2 z2 | B2 c2 dc B2 | c2 d2 eAdc | z2 B2 z4 |] %16
w: ||||||
V:2
 z4 C2 z2 | x8 | x8 | x8 | z4 C2 z2 | x8 | z4 z2 F2 | c2 z D [CEA]4 | x8 | x8 | x8 | x8 | %12
 [Ec]2 [Ec]2 C-[CE] [CA]2 | x8 | z4 z2 F2 | c2 z D [CEA]4 |] %16
V:3
 [A,,A,]2 [A,,A,]2 [A,,E,]2 [A,,E,]2 | z4 .B,2 z2 | [A,E]2 [A,B,E]2 [A,CA]3 [A,EA] | %3
 [A,CA]2[K:bass] [A,,A,]2 [E,G,]4 | [A,,A,]2 [A,,A,]2 [A,,E,]2 [A,,E,]2 | z4 .B,2 z2 | %6
 [A,E]2 [A,B,E]2 [A,CE]2 D,=D, | [E,A,E]2 .[E,G,E]2 A,,4 | [E,E]3 [E,E] [E,E] .[E,E]3 | %9
 [A,EA]3 [A,=DA] [A,EA] .[A,CA]3 | D,3 D,[K:treble] [A,EA][A,EA][K:bass][A,DE][A,CE] | %11
 [E,G,E]2 [E,A,E]2 C2 B,2 | [A,,A,]2 [A,,A,]2 [A,,E,]2 [A,,E,]2 | z4 .B,2 z2 | %14
 [A,E]2 [A,B,E]2 [A,CE]2 D,=D, | [E,A,E]2 .[E,G,E]2 A,,4 |] %16
V:4
 x8 | [E,G,E]2 [E,A,E]2 [E,E]-[E,A,E] [E,G,E]2 | x8 | x2[K:bass] x6 | x8 | %5
 [E,G,E]2 [E,A,E]2 [E,E]-[E,A,E] [E,G,E]2 | z4 z2 A,2 | x8 | x8 | x8 | x4[K:treble] x2[K:bass] x2 | %11
 z4 [E,E]4 | x8 | [E,G,E]2 [E,A,E]2 [E,E]-[E,A,E] [E,G,E]2 | z4 z2 A,2 | x8 |] %16

